Numix-GalliumOS/24/status/renamed-synapse.svg

<?xml version="1.0" encoding="UTF-8" standalone="no"?>
<svg
   xmlns:dc="http://purl.org/dc/elements/1.1/"
   xmlns:cc="http://creativecommons.org/ns#"
   xmlns:rdf="http://www.w3.org/1999/02/22-rdf-syntax-ns#"
   xmlns:svg="http://www.w3.org/2000/svg"
   xmlns="http://www.w3.org/2000/svg"
   xmlns:sodipodi="http://sodipodi.sourceforge.net/DTD/sodipodi-0.dtd"
   xmlns:inkscape="http://www.inkscape.org/namespaces/inkscape"
   width="24"
   height="24"
   viewBox="0 0 24 24"
   id="svg2"
   version="1.1"
   inkscape:version="0.91 r"
   sodipodi:docname="renamed-synapse.svg">
  <metadata
     id="metadata72">
    <rdf:RDF>
      <cc:Work
         rdf:about="">
        <dc:format>image/svg+xml</dc:format>
        <dc:type
           rdf:resource="http://purl.org/dc/dcmitype/StillImage" />
      </cc:Work>
    </rdf:RDF>
  </metadata>
  <sodipodi:namedview
     pagecolor="#ffffff"
     bordercolor="#666666"
     borderopacity="1"
     objecttolerance="10"
     gridtolerance="10"
     guidetolerance="10"
     inkscape:pageopacity="0"
     inkscape:pageshadow="2"
     inkscape:window-width="718"
     inkscape:window-height="480"
     id="namedview70"
     showgrid="false"
     inkscape:zoom="9.8333333"
     inkscape:cx="12"
     inkscape:cy="12"
     inkscape:window-x="0"
     inkscape:window-y="21"
     inkscape:window-maximized="0"
     inkscape:current-layer="svg2" />
  <defs
     id="defs4">
    <clipPath
       id="8">
      <path
         d="M 5 3 L 19 3 L 19 21 L 5 21 Z "
         id="path43" />
    </clipPath>
    <clipPath
       id="9">
      <path
         d="M 11.15625 3.277344 L 11.15625 5.238281 C 8.386719 5.589844 6.136719 7.625 5.453125 10.300781 L 7.207031 10.300781 C 7.925781 8.371094 9.828125 6.863281 11.90625 6.878906 C 11.957031 6.878906 12.007812 6.878906 12.058594 6.878906 C 12.8125 6.882812 13.554688 7.070312 14.230469 7.410156 C 15.441406 7.960938 16.339844 9.046875 16.78125 10.300781 L 18.542969 10.300781 C 17.863281 7.625 15.613281 5.589844 12.84375 5.238281 L 12.84375 3.277344 Z M 5.453125 13.707031 C 6.136719 16.378906 8.386719 18.417969 11.15625 18.765625 L 11.15625 20.730469 L 12.84375 20.730469 L 12.84375 18.765625 C 15.613281 18.417969 17.863281 16.378906 18.542969 13.707031 L 16.804688 13.707031 C 16.121094 15.738281 14.011719 17.199219 11.875 17.125 C 9.796875 17.136719 7.914062 15.640625 7.210938 13.707031 Z "
         id="path46" />
    </clipPath>
    <clipPath
       id="A">
      <path
         d="M 8 8 L 16 8 L 16 16 L 8 16 Z "
         id="path49" />
    </clipPath>
    <clipPath
       id="B">
      <path
         d="M 12 8.210938 C 9.945312 8.210938 8.28125 9.882812 8.28125 11.960938 C 8.28125 11.960938 8.257812 12.316406 8.363281 12.710938 L 14.078125 12.710938 C 13.921875 13.148438 13.644531 13.539062 13.269531 13.796875 C 12.40625 14.484375 11.097656 14.234375 10.359375 13.464844 L 8.59375 13.464844 C 9.167969 14.789062 10.476562 15.714844 12 15.714844 C 14.054688 15.714844 15.722656 14.035156 15.722656 11.960938 C 15.722656 11.960938 15.722656 11.578125 15.648438 11.210938 L 9.933594 11.210938 C 10.253906 10.390625 11.023438 9.726562 11.914062 9.71875 C 11.960938 9.71875 12.003906 9.714844 12.046875 9.71875 C 12.648438 9.730469 13.226562 10.015625 13.632812 10.460938 L 15.410156 10.460938 C 14.835938 9.136719 13.527344 8.210938 12 8.210938 Z "
         id="path52" />
    </clipPath>
  </defs>
  <g
     id="g58"
     clip-path="url(#8)"
     style="fill:#ececec;fill-opacity:1"
     transform="matrix(0.91674125,0,0,0.91674127,1.0008954,0.99552351)">
    <g
       id="g60"
       clip-path="url(#9)"
       style="fill:#ececec;fill-opacity:1">
      <path
         style="fill:#ececec;fill-opacity:1"
         inkscape:connector-curvature="0"
         id="path62"
         d="m 11.15625,3.277344 0,1.960937 C 8.386719,5.589844 6.136719,7.625 5.453125,10.300781 l 1.753906,0 c 0.71875,-1.929687 2.621094,-3.4375 4.699219,-3.421875 0.05078,0 0.101562,0 0.152344,0 0.753906,0.00391 1.496094,0.191406 2.171875,0.53125 1.210937,0.550782 2.109375,1.636719 2.550781,2.890625 l 1.761719,0 C 17.863281,7.625 15.613281,5.589844 12.84375,5.238281 l 0,-1.960937 z M 5.453125,13.707031 c 0.683594,2.671875 2.933594,4.710938 5.703125,5.058594 l 0,1.964844 1.6875,0 0,-1.964844 c 2.769531,-0.347656 5.019531,-2.386719 5.699219,-5.058594 l -1.738281,0 C 16.121094,15.738281 14.011719,17.199219 11.875,17.125 9.796875,17.136719 7.914062,15.640625 7.210938,13.707031 Z" />
    </g>
  </g>
  <g
     id="g64"
     clip-path="url(#A)"
     style="fill:#ececec;fill-opacity:1"
     transform="matrix(0.91674125,0,0,0.91674127,1.0008954,0.99552351)">
    <g
       id="g66"
       clip-path="url(#B)"
       style="fill:#ececec;fill-opacity:1">
      <path
         style="fill:#ececec;fill-opacity:1"
         inkscape:connector-curvature="0"
         id="path68"
         d="m 12,8.292969 c -2.054688,0 -3.71875,1.671875 -3.71875,3.753906 0,0 -0.023438,0.351563 0.082031,0.75 l 5.714844,0 c -0.15625,0.433594 -0.433594,0.824219 -0.808594,1.085937 -0.863281,0.6875 -2.171875,0.4375 -2.910156,-0.335937 l -1.765625,0 c 0.574219,1.324219 1.882812,2.253906 3.40625,2.253906 2.054688,0 3.722656,-1.683593 3.722656,-3.753906 0,0 0,-0.386719 -0.07422,-0.75 l -5.714844,0 c 0.320312,-0.820313 1.089844,-1.484375 1.980468,-1.492187 0.04688,-0.00391 0.08984,-0.00391 0.132813,-0.00391 0.601563,0.011719 1.179687,0.300781 1.585937,0.742188 l 1.777344,0 C 14.835938,9.21875 13.527344,8.292969 12,8.292969 Z" />
    </g>
  </g>
</svg>

<svg xmlns="http://www.w3.org/2000/svg" viewBox="0 0 24 24">
 <g transform="matrix(0.91674125,0,0,0.91674127,1.0008954,0.99552351)" style="fill:#ececec;fill-opacity:1">
  <g>
   <path d="m 11.156 3.277 0 1.961 c -2.77 0.352 -5.02 2.387 -5.703 5.063 l 1.754 0 c 0.719 -1.93 2.621 -3.438 4.699 -3.422 0.051 0 0.102 0 0.152 0 0.754 0.004 1.496 0.191 2.172 0.531 1.211 0.551 2.109 1.637 2.551 2.891 l 1.762 0 c -0.68 -2.676 -2.93 -4.711 -5.699 -5.063 l 0 -1.961 z m -5.703 10.43 c 0.684 2.672 2.934 4.711 5.703 5.059 l 0 1.965 1.688 0 0 -1.965 c 2.77 -0.348 5.02 -2.387 5.699 -5.059 l -1.738 0 c -0.684 2.031 -2.793 3.492 -4.93 3.418 -2.078 0.012 -3.961 -1.484 -4.664 -3.418"/>
  </g>
 </g>
 <g transform="matrix(0.91674125,0,0,0.91674127,1.0008954,0.99552351)" style="fill:#ececec;fill-opacity:1">
  <g>
   <path d="m 12 8.293 c -2.055 0 -3.719 1.672 -3.719 3.754 0 0 -0.023 0.352 0.082 0.75 l 5.715 0 c -0.156 0.434 -0.434 0.824 -0.809 1.086 -0.863 0.688 -2.172 0.438 -2.91 -0.336 l -1.766 0 c 0.574 1.324 1.883 2.254 3.406 2.254 2.055 0 3.723 -1.684 3.723 -3.754 0 0 0 -0.387 -0.074 -0.75 l -5.715 0 c 0.32 -0.82 1.09 -1.484 1.98 -1.492 0.047 -0.004 0.09 -0.004 0.133 -0.004 0.602 0.012 1.18 0.301 1.586 0.742 l 1.777 0 c -0.574 -1.324 -1.883 -2.25 -3.41 -2.25"/>
  </g>
 </g>
</svg>
